X: 91
T: No_187_Song_of_the_Begging_Dance.krn
N: Derived from No_187_Song_of_the_Begging_Dance.krn
%%abc-version 2.0
%%abcx-abcm2ps-target-version 5.9.1 (29 Sep 2008)
%%abc-creator hum2abc beta
%%abcx-conversion-date 2019/03/15 08:29:13
%%humdrum-veritas 415425373
%%humdrum-veritas-data 3653595206
%%linebreak <none>
%%barnumbers 0
L: 1/8
M: 3/4
%%staves {1 2}
V: 1 clef=bass
V: 2 clef=bass
K: D
[V:1] F [I:setbarnb 1]| 
[V:2] G,, | 
[V:1] F(3:2:2E/D F3/!wedge!E/ !accent!FE | 
[V:2] (3:2:9!accent!G,, z G,, !accent!G,, z G,, !accent!G,, z G,, | 
[V:1] B,3/B,/B,3!wedge!F,/!wedge!E/ | 
[V:2] z6 | 
[V:1] E(3:2:2D/CE3E | 
[V:2] z6 | 
[V:1] B,3/B,/B,3B, | 
[V:2] z6 | 
[V:1] !fermata!F,D,/D,/D,2D,2 | 
[V:2] z6 | 
[V:1] F,!fermata!E, F,3/E,/ F,E, | 
[V:2] z6 | 
[V:1] B,,B,,B,,2B,,2 |]  
[V:2] z6 |]  



